X: 07019
T: A WALTZ FOR CHRIS
C: Bob McQuillen 4 June 89
B: Bob's Note Book 7 #19
%R: waltz
Z: 2020 John Chambers <jc:trillian.mit.edu>
M: 3/4
L: 1/8
K: G	% and Em
B,D \
| "G"G2 GB AG | "Bm"F2 D2 DF | "C"E2 C3 E | "G"D4 B,D \
| "C"C2 CE DC | "G"B,2 D2 GA | "A"B2 BA GB | "D7"A4 BA |
| "G"GD GB AG | "Bm"F2 D2 DF | "C"ED CD EF | "G"G2 D2 B,D \
| "C"EG ce dc | "G"BG D2 Bc | "D7"BA G2 F2 | "G"G4 ||
|| B,D \
| "Em"E2 EG AG | "B7"F2 BA GF | "Em"ED EG FE | "Bm"D2 B,2 B,D \
| "Em"E2 EG AG | "B7"F2 Bc BA | "Em"G2 E3 D | "Em"E4 Bc |
| "G"d2 Bd ed | "Am"B2 A2 GA | "Em"B2 BA GE | "Bm"D4 GF \
| "Em"ED EF GE | "Bm"D2 B,2 B,A, | "Em"B,2 E3 D | "Em"E4 |]
%%begintext align
%% Chris Chambers is only a
%% beautiful memory now. As one of my favorite school
%% boys his light still shines. With much love to
%% Kathe, and Barry, and Tony Lee, his sister and brothers.
%%endtext

%%sep 1 1 500

%%sep 1 1 500

